X:1
T:Whiter Than Snow
T:Whiter Than Snow
T:William Gustavus Fischer
T:James L. Nicholson, 1872
T:Public Domain Courtesy of the Cyber Hymnal™
C:William Gustavus Fischer
Z:Public Domain
Z:Courtesy of the Cyber Hymnal™
%%score 1 ( 2 3 )
L:1/8
M:3/4
K:A
V:1 treble 
V:2 bass 
V:3 bass 
V:1
 [CE]2 | [CE]2 [EA]2 [EB]2 | [Ec]3 [DB] [CA]2 | [DB]2 [Ec]2 [DB]2 | [CA]4 [CE]2 | %5
w: 1.~Lord|Je- sus, I|long to be|per- fect- ly|whole; I|
w: 2.~Lord|Je- sus, let|no- thing un-|ho- ly re-|main, Ap-|
w: 3.~Lord|Je- sus, look|down from Thy|throne in the|skies, And|
w: 4.~Lord|Je- sus, for|this I most|hum- bly en-|treat, I|
w: 5.~Lord|Je- sus, Thou|se- est I|pa- tient- ly|wait, Come|
 [CE]2 [EA]2 [EB]2 | [Ec]3 [DB] [CA]2 | [DB]2 [Ec]2 [DB]2 | [CA]4 [Ec]2 | [Ee]2 [Ec]2 [EA]2 | %10
w: want Thee for-|ev- er to|live in my|soul. Break|down ev- ery|
w: ply Thine own|blood and ex-|tract ev- ery|stain; To|get this blest|
w: help me to|make a com-|plete sac- ri-|fice. I|give up my-|
w: wait, bless- èd|Lord, at Thy|cru- ci- fied|feet. By|faith, for my|
w: now, and with-|in me a|new heart cre-|ate; To|those who have|
 ([DF][FA]) [FA]2 [FA]2 | [Fd]2 [Fd]2 [Fd]2 | [Ec]4 [CE]2 | [CE]2 [EA]2 [Ec]2 | [Ec]3 [DB] [CA]2 | %15
w: i- * dol, cast|out ev- ery|foe; Now|wash me, and|I shall be|
w: clean- * sing, I|all things fore-|go— Now|wash me, and|I shall be|
w: self, * and what-|ev- er I|know, Now|wash me, and|I shall be|
w: cleans- * ing, I|see Thy blood|flow, Now|wash me, and|I shall be|
w: sought * Thee, Thou|nev- er saidst|“No,” Now|wash me, and|I shall be|
 [EB]3 [EA] [DB]2 | [EA]6 ||"^Refrain" [DB]2 [DB]2 [DB]2 | [DB]4 [CA]2 | [Cc]2 [CA]2 [DF]2 | %20
w: whit- er than|snow.||||
w: whit- er than|snow.||||
w: whit- er than|snow.|Whit- er than|snow, yes,|whit- er than|
w: whit- er than|snow.||||
w: whit- er than|snow.||||
 [CE]4 [CE]2 | [DF]2 [FA]2 [Fd]2 | [Ec]3 [DB] [CA]2 | [EB]3 [EA] [DB]2 | [CA]4 |] %25
w: |||||
w: |||||
w: snow. Now|wash me, and|I shall be|whit- er than|snow.|
w: |||||
w: |||||
V:2
 [A,,A,]2 | [A,,A,]2 [C,A,]2 [E,G,]2 | A,3 A, A,2 | [E,G,]2 [E,G,]2 [E,G,]2 | [A,,A,]4 [A,,A,]2 | %5
 [A,,A,]2 [C,A,]2 [E,G,]2 | A,3 A, A,2 | [E,G,]2 [E,G,]2 [E,G,]2 | [A,,A,]4 A,2 | %9
 [A,C]2 A,2 [C,A,]2 | [D,A,]2 [D,A,]2 [D,A,]2 | [D,A,]2 [D,A,]2 [D,A,]2 | [A,,A,]4 [A,,A,]2 | %13
 [A,,A,]2 [C,A,]2 [A,,A,]2 | [E,A,]3 [E,G,] [E,A,]2 | [E,G,]3 [E,F,] [E,G,]2 | [A,,A,]6 || %17
 [E,G,]2 [E,G,]2 [E,G,]2 | [E,G,]4 [F,A,]2 | [F,A,]2 [F,A,]2 [D,A,]2 | [A,,A,]4 [A,,A,]2 | %21
 [D,A,]2 [D,A,]2 [D,A,]2 | [E,A,]3 [E,G,] [E,A,]2 | [E,G,]3 [E,F,] [E,G,]2 | [A,,A,]4 |] %25
V:3
 x2 | x6 | A,3 A, A,2 | x6 | x6 | x6 | A,3 A, A,2 | x6 | x4 A,2 | x2 A,2 x2 | x6 | x6 | x6 | x6 | %14
 x6 | x6 | x6 || x6 | x6 | x6 | x6 | x6 | x6 | x6 | x4 |] %25

